X: 5129
T: Bridgie Con Matt's
R: slide
M: 12/8
K: Dmajor
|:g|f2e d2c d3 A3|Bcd Bcd c2B A2d|
f2e d2c ded A3|Bcd efe d3 d2:|
|:A|d2e fdf a3 f2e|d2e f2d BdB A3|
d2e fdf a3 f2e|d2f efe d3 d2:|

